X:1
T: Bridge of Lodi
C:
R:Reel
Q: 232
K:D
M:4/4
L:1/8
AF|D2d2 d2cd|ec Ac d2de|fd fd ge ge|af df ec AF|D2d2 d2cd|ec Ac d2cd|ec ec dB A^G|A2A2 A2fg|
ag fe dc BA|B2G2 G2ga|ba gf ed cB|c2A2 A2fg|af af bg bg|af af bg bg|af bg fe dc|d2d2 d2AF|
D2d2 d2cd|ec Ac d2de|fd fd ge ge|af df ec AF|D2d2 d2cd|ec Ac d2cd|ec ec dB A^G|A2A2 A2fg|
ag fe dc BA|B2G2 G2ga|ba gf ed cB|c2A2 A2fg|af af bg bg|af af bg bg|af bg fe dc|d2d2 d2||
